X: 1
T: Fiddlers Three
C: B.Guest
M: 6/8
L: 1/8
K: D
G \
| "D"F2A "G"dcB | "D"AFA    f2e |  "D"dAF "Bm"DFA | "Em"BEE "A7"E2G \
| "D"F2A "G"dcB | "D"AFA "G"g2f | "A7"ecA     Ace |  "D"fdd    d2 :|
|: f/g/ \
| "D"a2f "(G)"b2f | "D"agf "Em"gfe | "A7"c2e a2g |    gfe "D"f2g \
| "D"a2f "(G)"b2f | "D"agf "Em"gfe | "A7"c2e gfe | "D"fdd    d2 :|
